board_games/icehouse_pieces/volcano_board_3_icon.svg

<?xml version="1.0" encoding="UTF-8" standalone="no"?>
<!-- Created with Inkscape (http://www.inkscape.org/) -->

<svg
   width="32"
   height="32"
   viewBox="0 0 32 32"
   version="1.1"
   id="svg1"
   xmlns:xlink="http://www.w3.org/1999/xlink"
   xmlns="http://www.w3.org/2000/svg"
   xmlns:svg="http://www.w3.org/2000/svg">
  <defs
     id="defs1">
    <linearGradient
       id="linearGradient4">
      <stop
         style="stop-color:#2c72c7;stop-opacity:1;"
         offset="0"
         id="stop4" />
      <stop
         style="stop-color:#00438a;stop-opacity:1;"
         offset="1"
         id="stop5" />
    </linearGradient>
    <linearGradient
       xlink:href="#linearGradient4"
       id="linearGradient5"
       x1="0"
       y1="0"
       x2="32"
       y2="32"
       gradientUnits="userSpaceOnUse" />
  </defs>
  <g
     id="g1">
    <rect
       style="fill:url(#linearGradient5)"
       id="rect4"
       width="32"
       height="32"
       x="0"
       y="0" />
    <path
       style="opacity:0.1;fill:#000000;stroke-width:1.66505"
       d="M 4.0000002,6.8422759 V 25.157724 H 28 L 18.842276,15.999999 28,6.8422759 H 23.291059 L 16.487806,13.645529 10.660163,7.8178859 V 12.52683 l 3.473169,3.473169 -4.1626012,4.162602 h 4.7089432 l 1.808132,-1.808131 3.47317,3.473172 H 7.3300817 V 6.8422759 Z"
       id="path1-6" />
  </g>
  <path
     id="path7"
     style="color:#000000;fill:#ffffff;stroke-linecap:round;stroke-miterlimit:8;stroke-dashoffset:0.8;-inkscape-stroke:none;paint-order:markers stroke fill"
     d="M 6.5761719,3.4375 3.4335938,25.423828 25.423828,28.566406 28.566406,6.4140625 Z M 7.4238281,4.5625 13.441406,5.3769531 12.576172,11.435547 6.5644531,10.576172 Z M 14.431641,5.5097656 20.449219,6.3242188 19.576172,12.435547 18.277344,12.25 l 0.609375,1.095703 0.548828,0.07813 -0.103516,0.72461 0.802735,1.443359 0.289062,-2.027344 5.998047,0.857422 -0.853516,6.011719 -2.982421,-0.425782 0.550781,0.990235 -0.177735,0.07031 2.470704,0.353516 -0.853516,6.013672 -6.011719,-0.859375 0.568359,-3.976563 -1.068359,0.427735 -0.488281,3.408203 -6.011719,-0.859375 0.472656,-3.308594 -0.953125,-0.380859 -0.507812,3.548828 -6.0117189,-0.859375 0.859375,-6.011719 4.4375,0.634766 0.5195309,-0.935547 -4.8164059,-0.6875 0.859375,-6.011719 6.0117189,0.859375 -0.412109,2.882813 1.357421,-2.445313 0.04297,-0.296875 0.113281,0.01563 0.519532,-0.933594 -0.492188,-0.07031 z m 7.007812,0.9492188 5.996094,0.8105468 -0.873047,6.1640628 -5.998047,-0.857422 z" />
  <path
     style="opacity:1;fill:none;stroke:#ffffff;stroke-linecap:round;stroke-miterlimit:8;stroke-dashoffset:0.8;paint-order:markers stroke fill"
     d="m 16,11 -5,9 5,2 5,-2 z"
     id="path12" />
  <path
     style="opacity:1;fill:none;stroke:#ffffff;stroke-linecap:round;stroke-miterlimit:8;stroke-dashoffset:0.8;paint-order:markers stroke fill"
     d="M 16,11 V 22"
     id="path13" />
  <circle
     style="opacity:1;fill:#ffffff;stroke:none;stroke-width:3;stroke-linecap:butt;stroke-miterlimit:8;stroke-dashoffset:0.8;paint-order:markers stroke fill"
     id="path17"
     cx="14"
     cy="19"
     r="0.5" />
  <circle
     style="fill:#ffffff;stroke:none;stroke-width:3;stroke-linecap:butt;stroke-miterlimit:8;stroke-dashoffset:0.8;paint-order:markers stroke fill"
     id="path17-3"
     cx="18"
     cy="19"
     r="0.5" />
  <path
     style="fill:none;stroke:#ffffff;stroke-linecap:square;stroke-miterlimit:8;stroke-dashoffset:0.8;paint-order:markers stroke fill"
     d="m 27,23 h 2 c 1,0 2,1 2,2 0,1 -1,2 -2,2 1,0 2,1 2,2 0,1 -1,2 -2,2 h -2"
     id="path2" />
</svg>

<?xml version="1.0" encoding="UTF-8" standalone="no"?>
<!-- Created with Inkscape (http://www.inkscape.org/) -->

<svg
   width="32"
   height="32"
   viewBox="0 0 32 32"
   version="1.1"
   id="svg1"
   xmlns:xlink="http://www.w3.org/1999/xlink"
   xmlns="http://www.w3.org/2000/svg"
   xmlns:svg="http://www.w3.org/2000/svg">
  <defs
     id="defs1">
    <linearGradient
       id="linearGradient4">
      <stop
         style="stop-color:#2c72c7;stop-opacity:1;"
         offset="0"
         id="stop4" />
      <stop
         style="stop-color:#00438a;stop-opacity:1;"
         offset="1"
         id="stop5" />
    </linearGradient>
    <linearGradient
       xlink:href="#linearGradient4"
       id="linearGradient5"
       x1="0"
       y1="0"
       x2="32"
       y2="32"
       gradientUnits="userSpaceOnUse" />
  </defs>
  <g
     id="g1">
    <rect
       style="fill:url(#linearGradient5)"
       id="rect4"
       width="32"
       height="32"
       x="0"
       y="0" />
    <path
       style="opacity:0.1;fill:#000000;stroke-width:1.66505"
       d="M 4.0000002,6.8422759 V 25.157724 H 28 L 18.842276,15.999999 28,6.8422759 H 23.291059 L 16.487806,13.645529 10.660163,7.8178859 V 12.52683 l 3.473169,3.473169 -4.1626012,4.162602 h 4.7089432 l 1.808132,-1.808131 3.47317,3.473172 H 7.3300817 V 6.8422759 Z"
       id="path1-6" />
  </g>
  <path
     id="path7"
     style="color:#000000;fill:#ffffff;stroke-linecap:round;stroke-miterlimit:8;stroke-dashoffset:0.8;-inkscape-stroke:none;paint-order:markers stroke fill"
     d="M 6.5761719 3.4375 L 5.5058594 10.929688 L 4.5058594 17.929688 L 3.4335938 25.423828 L 10.929688 26.494141 L 25.423828 28.566406 L 26.484375 21.09375 A 0.5 0.5 0 0 0 26.494141 21.070312 A 0.5 0.5 0 0 0 26.496094 21.001953 L 27.472656 14.119141 A 0.5 0.5 0 0 0 27.494141 14.070312 A 0.5 0.5 0 0 0 27.496094 13.958984 L 28.566406 6.4140625 L 6.5761719 3.4375 z M 7.4238281 4.5625 L 13.441406 5.3769531 L 12.576172 11.435547 L 6.5644531 10.576172 L 7.4238281 4.5625 z M 14.431641 5.5097656 L 20.449219 6.3242188 L 19.576172 12.435547 L 18.277344 12.25 L 18.886719 13.345703 L 19.435547 13.423828 L 19.332031 14.148438 L 20.134766 15.591797 L 20.423828 13.564453 L 26.421875 14.421875 L 25.568359 20.433594 L 22.585938 20.007812 L 23.136719 20.998047 L 22.958984 21.068359 L 25.429688 21.421875 L 24.576172 27.435547 L 18.564453 26.576172 L 19.132812 22.599609 L 18.064453 23.027344 L 17.576172 26.435547 L 11.564453 25.576172 L 12.037109 22.267578 L 11.083984 21.886719 L 10.576172 25.435547 L 4.5644531 24.576172 L 5.4238281 18.564453 L 9.8613281 19.199219 L 10.380859 18.263672 L 5.5644531 17.576172 L 6.4238281 11.564453 L 12.435547 12.423828 L 12.023438 15.306641 L 13.380859 12.861328 L 13.423828 12.564453 L 13.537109 12.580078 L 14.056641 11.646484 L 13.564453 11.576172 L 14.431641 5.5097656 z M 21.439453 6.4589844 L 27.435547 7.2695312 L 26.5625 13.433594 L 20.564453 12.576172 L 21.439453 6.4589844 z " />
  <path
     style="opacity:1;fill:none;stroke:#ffffff;stroke-linecap:round;stroke-miterlimit:8;stroke-dashoffset:0.8;paint-order:markers stroke fill"
     d="m 16,11 -5,9 5,2 5,-2 z"
     id="path12" />
  <path
     style="opacity:1;fill:none;stroke:#ffffff;stroke-linecap:round;stroke-miterlimit:8;stroke-dashoffset:0.8;paint-order:markers stroke fill"
     d="M 16,11 V 22"
     id="path13" />
  <circle
     style="opacity:1;fill:#ffffff;stroke:none;stroke-width:3;stroke-linecap:butt;stroke-miterlimit:8;stroke-dashoffset:0.8;paint-order:markers stroke fill"
     id="path17"
     cx="14"
     cy="19"
     r="0.5" />
  <circle
     style="fill:#ffffff;stroke:none;stroke-width:3;stroke-linecap:butt;stroke-miterlimit:8;stroke-dashoffset:0.8;paint-order:markers stroke fill"
     id="path17-3"
     cx="18"
     cy="19"
     r="0.5" />
  <path
     style="fill:none;stroke:#ffffff;stroke-linecap:square;stroke-miterlimit:8;stroke-dashoffset:0.8;paint-order:markers stroke fill"
     d="m 27,23 h 2 c 1,0 2,1 2,2 0,1 -1,2 -2,2 1,0 2,1 2,2 0,1 -1,2 -2,2 h -2"
     id="path2" />
</svg>
